packages/dnb-eufemia/assets/icons/broken_chain_medium.svg

<svg width="24" height="24" viewBox="0 0 24 24" fill="none" xmlns="http://www.w3.org/2000/svg">
<path d="M8.25001 5.24902L5.25001 2.24902M6.75001 8.24902H5.25001M11.25 3.74902V2.24902M14.25 6.74902H18.75C21.201 6.74902 23.25 8.79802 23.25 11.249C23.25 13.7 21.201 15.749 18.75 15.749H14.25M4.72001 11.415L2.06801 14.067C0.334875 15.8002 0.334875 18.6979 2.06801 20.431C3.80114 22.1642 6.69888 22.1642 8.43201 20.431L11.084 17.779" stroke="black" stroke-width="1.5" stroke-linecap="round" stroke-linejoin="round"/>
</svg>

<svg width="24" height="24" viewBox="0 0 24 24" fill="none" xmlns="http://www.w3.org/2000/svg"><path d="m8.25 5.249-3-3m1.5 6h-1.5m6-4.5v-1.5m3 4.5h4.5c2.451 0 4.5 2.049 4.5 4.5s-2.049 4.5-4.5 4.5h-4.5m-9.53-4.334-2.652 2.652c-1.733 1.733-1.733 4.63 0 6.364 1.733 1.733 4.63 1.733 6.364 0l2.652-2.652" stroke="#000" stroke-width="1.5" stroke-linecap="round" stroke-linejoin="round"/></svg>
